X:2326 
T:Shiaull y cheayn
T:Return of the Boats 
C:Mrs Shimmin, Foxdale
C:Traditional
O:Isle of Man
S:Collected by Mona Douglas
N:See also KV #328
B:Kiaull Vannin #326 
L:1/4
M:3/4 
Q:180 
K:G 
B2 B|(AB) c|d e d|(dc) B|A2 A|B3|A2 A|B3| 
B2 B|(AB) c|d e d|(BA) G|A2 A|B3|A2 A|B3|
e2 e|e2 d|e2 d|(BA) G|A2 A|B3|A2 A|B3| 
e2 e|e2 d|e2 d|(BA) G|A>G A|B3|(A>G) A|G3|| 

